X:1
T:James Gibb editions
T:So tired, I fain would rest - Barnby
%%score [ ( 1 2 ) ( 3 4 ) ]
L:1/8
Q:1/4=96
M:4/4
K:D
V:1 treble nm="Midi_74"
V:2 treble 
V:3 bass nm="Midi_74"
V:4 bass 
V:1
"^So tired, I fain would rest""^Joseph Barnby\n(1838-96)""^664. 884" F2 | B3 B A2 G2 | F6 || F2 | %4
 B3 B A2 ^G2 | (F2 ^G2) || A4 | A4 ^G4 | A6 ||[M:4/4] A2 | e2 d2 c2 B2 | A3 B A2 || A2 | %13
 e2 d2 c2 B2 | A3 B A2 || F2 | D4 E4 | D6 || G4 F4 |] %19
V:2
 D2 | F3 F E2 C2 | D6 || D2 | F3 F F2 ^E2 | C4 || (C2 ^D2) | E4 E4 | E6 ||[M:4/4] A2 | %10
 A2 A2 G2 F2 | E2 D2 C2 || D2 | C2 D2 G2 G2 | G2"^1" G2 F2 || C2 | B,4 C4 | D6 || D4 D4 |] %19
V:3
 A,2 | D3 D A,2 A,2 | A,6 || A,2 | D3 D C2 C2 | (C2 B,2) || (A,2 B,2) | C4 D4 | C6 ||[M:4/4] A,2 | %10
 C2 D2 G,2 B,2 | E,2 F,2 G,2 || F,2 | G,2 G,2 G,2 B,2 | E2"^1" C2 A,2 || ^A,2 | F,4 G,4 | F,6 || %18
 B,4 A,4 |] %19
V:4
 D,2 | B,,3 B,, C,2 A,,2 | D,6 || D,2 | B,,3 B,, C,2 B,2 | (A,2- ^G,2) || F,4 | E,4 E,4 | A,6 || %9
[M:4/4] A,2 | =G,2 F,2 E,2 D,2 | C,2 D,2 E,2 || D,2 | A,,2 B,,2 E,2 D,2 | C,2 A,,2 D,2 || F,,2 | %16
 B,,4 A,,4 | D,6 || G,,4 D,4 |] %19

